symbols/web/inventory/materialsymbolsrounded/inventory_wght600fill1_20px.svg

<svg xmlns="http://www.w3.org/2000/svg" height="20" width="20"><path d="M9.208 17.938H4.333q-.937 0-1.583-.646-.646-.646-.646-1.584V4.375q0-.917.667-1.583.667-.667 1.667-.667h2.916q.375-.771 1.094-1.229.719-.458 1.594-.458.854 0 1.583.458t1.104 1.229h2.917q.937 0 1.594.667.656.666.656 1.583v3.979h-2.292V4.396h-1.562v.562q0 .834-.573 1.407-.573.573-1.407.573H7.938q-.834 0-1.407-.573-.573-.573-.573-1.407v-.562H4.396v11.25h4.812Zm3.709-4.23 3.729-3.75q.333-.312.781-.312t.761.312q.333.334.333.792t-.333.771L13.729 16q-.312.312-.812.312T12.104 16l-2.187-2.188q-.334-.312-.323-.77.01-.459.344-.792.312-.312.77-.312.459 0 .792.312ZM10 4.167q.333 0 .562-.229.23-.23.23-.563 0-.333-.23-.562-.229-.23-.562-.23-.333 0-.562.23-.23.229-.23.562 0 .333.23.563.229.229.562.229Z"/></svg>

<svg xmlns="http://www.w3.org/2000/svg" height="20" width="20"><path d="M10 4.417Q10.438 4.417 10.719 4.135Q11 3.854 11 3.417Q11 2.979 10.719 2.698Q10.438 2.417 10 2.417Q9.562 2.417 9.281 2.698Q9 2.979 9 3.417Q9 3.854 9.281 4.135Q9.562 4.417 10 4.417ZM9.208 17.938H4.333Q3.396 17.938 2.75 17.292Q2.104 16.646 2.104 15.708V4.375Q2.104 3.458 2.76 2.792Q3.417 2.125 4.354 2.125H7.375Q7.729 1.396 8.427 0.927Q9.125 0.458 10 0.458Q10.875 0.458 11.562 0.927Q12.25 1.396 12.625 2.125H15.646Q16.583 2.125 17.24 2.792Q17.896 3.458 17.896 4.375V8.354H15.604V4.396Q15.604 4.396 15.604 4.396Q15.604 4.396 15.604 4.396H14.042V4.958Q14.042 5.792 13.469 6.365Q12.896 6.938 12.062 6.938H7.938Q7.104 6.938 6.531 6.365Q5.958 5.792 5.958 4.958V4.396H4.396Q4.396 4.396 4.396 4.396Q4.396 4.396 4.396 4.396V15.646Q4.396 15.646 4.396 15.646Q4.396 15.646 4.396 15.646H9.208ZM12.917 13.708 16.646 9.958Q16.979 9.646 17.427 9.646Q17.875 9.646 18.188 9.958Q18.521 10.292 18.521 10.75Q18.521 11.208 18.188 11.521L13.729 16Q13.417 16.312 12.917 16.312Q12.417 16.312 12.104 16L9.917 13.812Q9.583 13.5 9.594 13.042Q9.604 12.583 9.938 12.25Q10.25 11.938 10.708 11.938Q11.167 11.938 11.5 12.25Z"/></svg>
